casedrop/img/balance/images/bitcoin.svg

<svg width="55" height="55" viewBox="0 0 55 55" fill="none" xmlns="http://www.w3.org/2000/svg">
<path fill-rule="evenodd" clip-rule="evenodd" d="M53.7933 26.9002C53.7933 41.31 42.1124 52.9915 27.7034 52.9915C13.2942 52.9915 1.61328 41.31 1.61328 26.9002C1.61328 12.4903 13.2942 0.808823 27.7034 0.808823C42.1124 0.808823 53.7933 12.4903 53.7933 26.9002ZM33.9713 17.2063C37.6006 18.4527 40.2554 20.3188 39.7345 23.7919C39.3563 26.3351 37.9412 27.5652 36.0611 27.9958C38.6405 29.3336 39.5197 31.8723 38.7027 34.942C37.1519 39.3596 33.4653 39.7315 28.5619 38.8082L27.3713 43.5569L24.497 42.8424L25.6713 38.1574C24.9262 37.973 24.1646 37.7756 23.3801 37.5652L22.201 42.2732L19.33 41.5586L20.5189 36.8L14.7296 35.3449L16.1577 32.066C16.1577 32.066 18.2769 32.6255 18.2474 32.5847C19.0614 32.7853 19.4233 32.2569 19.5658 31.9061L22.7922 19.0171C22.8281 18.4085 22.6169 17.6419 21.4525 17.3515C21.4966 17.3205 19.3644 16.8344 19.3644 16.8344L20.1292 13.7756L25.9267 15.2063L27.106 10.5016L29.9786 11.2161L28.8239 15.8278C29.597 16.0024 30.3733 16.1802 31.1283 16.3678L32.2747 11.7854L35.1489 12.4999L33.9713 17.2063ZM27.094 25.0544C29.0519 25.5735 33.3123 26.7031 34.0549 23.7414C34.8125 20.7112 30.6734 19.7961 28.6468 19.348C28.4173 19.2972 28.2144 19.2524 28.0492 19.2113L26.6179 24.9307C26.7543 24.9643 26.9145 25.0069 27.094 25.0544ZM24.8757 34.2629C27.2207 34.8807 32.3494 36.2316 33.1655 32.9681C34.0009 29.6313 29.0282 28.5199 26.6019 27.9775C26.3311 27.917 26.0914 27.8635 25.8957 27.8148L24.3168 34.1183C24.4772 34.1579 24.6656 34.2076 24.8757 34.2629Z" fill="#F7931A"/>
</svg>

<svg width="55" height="55" fill="none" xmlns="http://www.w3.org/2000/svg"><path fill-rule="evenodd" clip-rule="evenodd" d="M53.793 26.9c0 14.41-11.68 26.092-26.09 26.092-14.409 0-26.09-11.682-26.09-26.092C1.613 12.49 13.294.81 27.703.81c14.41 0 26.09 11.681 26.09 26.091zm-19.822-9.694c3.63 1.247 6.284 3.113 5.764 6.586-.379 2.543-1.794 3.773-3.674 4.204 2.58 1.338 3.459 3.876 2.642 6.946-1.551 4.418-5.238 4.79-10.141 3.866l-1.19 4.749-2.875-.715 1.174-4.685c-.745-.184-1.506-.381-2.29-.592l-1.18 4.708-2.871-.714 1.189-4.759-5.79-1.455 1.429-3.279s2.119.56 2.09.519c.813.2 1.175-.328 1.318-.679l3.226-12.889c.036-.608-.175-1.375-1.34-1.665.045-.032-2.088-.518-2.088-.518l.765-3.058 5.798 1.43 1.179-4.704 2.873.714-1.155 4.612c.773.174 1.55.352 2.304.54l1.147-4.583 2.874.715-1.178 4.706zm-6.877 7.848c1.958.52 6.218 1.65 6.96-1.313.758-3.03-3.38-3.945-5.407-4.393-.23-.05-.433-.096-.598-.137l-1.431 5.72c.136.033.297.076.476.123zm-2.218 9.209c2.345.618 7.473 1.969 8.29-1.295.835-3.337-4.138-4.448-6.564-4.99-.27-.061-.51-.115-.706-.163l-1.58 6.303c.161.04.35.09.56.145z" fill="#F7931A"/></svg>
